packages/icons/src/bell.svg

<svg width="24" height="24" viewBox="0 0 24 24" fill="none" xmlns="http://www.w3.org/2000/svg">
<path fill-rule="evenodd" clip-rule="evenodd" d="M13 1L13.0008 3.08309C15.8381 3.5595 18 6.02729 18 9L18.0009 12.171C19.1074 12.5625 19.9157 13.5848 19.9938 14.8056L20 15V19L14.8286 19.0012C14.7014 19.3608 14.506 19.6938 14.2515 19.9826C13.6862 20.6242 12.8723 21 12 21C11.1269 21 10.3124 20.6236 9.74708 19.981C9.49329 19.6926 9.29842 19.3602 9.17142 19.0013L4 19V15C4 13.6937 4.83485 12.5825 6.00009 12.1707L6 9C6 6.02694 8.16238 3.55893 11.0002 3.08293L11 1H13ZM17 14H7C6.48716 14 6.06449 14.386 6.00673 14.8834L6 15V17H18V15C18 14.5266 17.6711 14.1301 17.2293 14.0264L17.1166 14.0067L17 14ZM12 5C9.8578 5 8.10892 6.68397 8.0049 8.80036L8 9V12H16V9C16 6.8578 14.316 5.10892 12.1996 5.0049L12 5Z" fill="black"/>
</svg>

<svg xmlns="http://www.w3.org/2000/svg" width="24" height="24" fill="none" viewBox="0 0 24 24">
  <path fill="#000" fill-rule="evenodd" d="M13 1v2.083c2.838.476 5 2.944 5 5.917v3.171a3.002 3.002 0 0 1 1.994 2.635L20 15v4l-5.171.001A2.995 2.995 0 0 1 12 21a2.995 2.995 0 0 1-2.829-1.999L4 19v-4c0-1.306.835-2.418 2-2.83V9a6.002 6.002 0 0 1 5-5.917V1h2Zm4 13H7a1 1 0 0 0-.993.883L6 15v2h12v-2a1 1 0 0 0-.77-.974l-.113-.02L17 14Zm-5-9a4 4 0 0 0-3.995 3.8L8 9v3h8V9a4 4 0 0 0-3.8-3.995L12 5Z" clip-rule="evenodd"/>
</svg>
